!!!COM: Corelli, Arcangelo
!!!OTL: 
!!!ONM: Opus 6, No. 4
!!!OMV: 4
!!!CDT: 1653/2/17/-1713/1/8/
!!!OCY: Italia
**kern	**kern	**kern	**kern	**kern	**kern	**kern
*clefC	*clefG	*clefG	*clefG	*clefC	*clefG	*clefG
*k[f#c#]	*k[f#c#]	*k[f#c#]	*k[f#c#]	*k[f#c#]	*k[f#c#]	*k[f#c#]
*D:	*D:	*D:	*D:	*D:	*D:	*D:
*M2/4	*M2/4	*M2/4	*M2/4	*M2/4	*M2/4	*M2/4
=1	=1	=1	=1	=1	=1	=1
2r	2r	2r	2r	4d	4aa	4ff#
.	.	.	.	4c#	4ee	4aa
=2	=2	=2	=2	=2	=2	=2
2r	2r	2r	2r	4B	4ff#	4ddd
.	.	.	.	4F#	[4dd	8r
.	.	.	.	.	.	8dd
=3	=3	=3	=3	=3	=3	=3
2r	2r	2r	2r	4G	4dd]	12ee
.	.	.	.	.	.	12ff#
.	.	.	.	.	.	12gg
.	.	.	.	4A	4cc#	12ee
.	.	.	.	.	.	12ff#
.	.	.	.	.	.	12gg
=4	=4	=4	=4	=4	=4	=4
2r	2r	2r	4.r	2D	4dd	4ff#
.	.	.	.	.	4r	8r
.	.	.	8aa	.	.	8aa
=5	=5	=5	=5	=5	=5	=5
4d	4d	4aa	12ff#	4d	4aa	12ff#
.	.	.	12gg	.	.	12gg
.	.	.	12aa	.	.	12aa
4r	4r	4r	12ff#	4r	4r	12ff#
.	.	.	12gg	.	.	12gg
.	.	.	12aa	.	.	12aa
=6	=6	=6	=6	=6	=6	=6
4c#	4a	4aa	8ee	4c#	4aa	8ee
.	.	.	8aa	.	.	8aa
4r	4r	4r	8ee	4r	4r	8ee
.	.	.	8a	.	.	8a
=7	=7	=7	=7	=7	=7	=7
4B	8f#	4aa	12dd	4B	4aa	12dd
.	.	.	12ee	.	.	12ee
.	8d	.	.	.	.	.
.	.	.	12ff#	.	.	12ff#
4E	4e	4gg#	12ee	4E	4gg#	12ee
.	.	.	12ff#	.	.	12ff#
.	.	.	12dd	.	.	12dd
=8	=8	=8	=8	=8	=8	=8
4A	4e	4aa	8cc#	4A	4aa	8cc#
.	.	.	8dd	.	.	8dd
8r	8r	8r	[4ee	8r	8r	[4ee
8G#	8e	8ee	.	8G#	8ee	.
=9	=9	=9	=9	=9	=9	=9
4F#	4f#	4a	8ee]	4F#	4a	8ee]
.	.	.	8a	.	.	8a
8r	8r	8r	[4dd	8r	8r	[4dd
8D	8f#	8ff#	.	8D	8ff#	.
=10	=10	=10	=10	=10	=10	=10
8E	4B	8g#	8dd]	8E	8g#	8dd]
8G#	.	8e	8ee	8G#	8e	8ee
8A	8r	4a	8cc#	8A	4a	8cc#
8D	8f#	.	8b	8D	.	8b
=11	=11	=11	=11	=11	=11	=11
4E	4e	8r	12cc#	4E	8r	12cc#
.	.	.	12b	.	.	12b
.	.	8cc#	.	.	8cc#	.
.	.	.	12a	.	.	12a
4EE	4e	8b	8e	4EE	8b	8e
.	.	8ee	8g#	.	8ee	8g#
=12	=12	=12	=12	=12	=12	=12
4AA	4e	4cc#	4A	8A	4cc#	4A
.	.	.	.	8B	.	.
4r	4r	4r	4r	8A	4A	8r
.	.	.	.	8G	.	8a
=13	=13	=13	=13	=13	=13	=13
2r	2r	2r	2r	4F#	8r	12dd
.	.	.	.	.	.	12cc#
.	.	.	.	.	8a	.
.	.	.	.	.	.	12dd
.	.	.	.	8r	4dd	8a
.	.	.	.	8D	.	8dd
=14	=14	=14	=14	=14	=14	=14
4G	4g	4dd	4b	8G	8r	4b
.	.	.	.	8A	8d	.
4GG	4d	4B	4G	8B	4G	8r
.	.	.	.	8A	.	8b
=15	=15	=15	=15	=15	=15	=15
2r	2r	2r	2r	4G#	8r	8ee
.	.	.	.	.	8b	8b
.	.	.	.	8r	4ee	8e
.	.	.	.	8E	.	8ee
=16	=16	=16	=16	=16	=16	=16
4A	4a	4ee	4cc#	8A	8r	4cc#
.	.	.	.	8B	8e	.
4AA	4e	4c#	4A	8c#	4A	8r
.	.	.	.	8B	.	8cc#
=17	=17	=17	=17	=17	=17	=17
2r	2r	2r	2r	4A#	8r	12ff#
.	.	.	.	.	.	12ee
.	.	.	.	.	8cc#	.
.	.	.	.	.	.	12ff#
.	.	.	.	8r	4ff#	8cc#
.	.	.	.	8F#	.	8ff#
=18	=18	=18	=18	=18	=18	=18
4B	4b	4ff#	4dd	8B	8r	4dd
.	.	.	.	8c#	8f#	.
4BB	4f#	4d	4B	8d	4B	8r
.	.	.	.	8B	.	8dd
=19	=19	=19	=19	=19	=19	=19
4c#	4a	4a	4ee	4c#	8r	12ee
.	.	.	.	.	.	12ff#
.	.	.	.	.	8ee	.
.	.	.	.	.	.	12gg
4r	4r	4r	4r	8r	4aa	12ee
.	.	.	.	.	.	12ff#
.	.	.	.	8A	.	.
.	.	.	.	.	.	12gg
=20	=20	=20	=20	=20	=20	=20
4d	4a	4a	4ff#	4d	8r	12ff#
.	.	.	.	.	.	12gg
.	.	.	.	.	8a	.
.	.	.	.	.	.	12aa
4r	4r	4r	4r	4D	4d	12ff#
.	.	.	.	.	.	12gg
.	.	.	.	.	.	12aa
=21	=21	=21	=21	=21	=21	=21
4G	4g	4dd	4bb	4G	4r	12bb
.	.	.	.	.	.	12aa
.	.	.	.	.	.	12gg
4r	4r	4r	4r	4r	4dd	12bb
.	.	.	.	.	.	12aa
.	.	.	.	.	.	12gg
=22	=22	=22	=22	=22	=22	=22
4F#	4d	4dd	4aa	4F#	4r	12aa
.	.	.	.	.	.	12gg
.	.	.	.	.	.	12ff#
4r	4r	4r	4r	4r	4dd	12aa
.	.	.	.	.	.	12gg
.	.	.	.	.	.	12ff#
=23	=23	=23	=23	=23	=23	=23
4E	4e	4cc#	4gg	4E	4cc#	12gg
.	.	.	.	.	.	12ff#
.	.	.	.	.	.	12ee
4D	4A	4dd	4ff#	4D	4dd	12ff#
.	.	.	.	.	.	12ee
.	.	.	.	.	.	12dd
=24	=24	=24	=24	=24	=24	=24
4A	4A	4cc#	4ee	4A	4cc#	8ee
.	.	.	.	.	.	8a
4r	4r	4r	4r	12d	4r	4aa
.	.	.	.	12e	.	.
.	.	.	.	12d	.	.
=25	=25	=25	=25	=25	=25	=25
4r	4r	4r	4r	12c#	4aa	4r
.	.	.	.	12d	.	.
.	.	.	.	12c#	.	.
4D	4a	4dd	4ff#	12d	4r	4aa
.	.	.	.	12e	.	.
.	.	.	.	12d	.	.
=26	=26	=26	=26	=26	=26	=26
4A	4a	4cc#	4ee	12A	4aa	4r
.	.	.	.	12B	.	.
.	.	.	.	12A	.	.
4r	4r	4r	4r	12d	4r	4aa
.	.	.	.	12e	.	.
.	.	.	.	12d	.	.
=27	=27	=27	=27	=27	=27	=27
4r	4r	4r	4r	12c#	4aa	4r
.	.	.	.	12d	.	.
.	.	.	.	12c#	.	.
4D	4a	4dd	4ff#	12d	4r	4aa
.	.	.	.	12e	.	.
.	.	.	.	12d	.	.
=28	=28	=28	=28	=28	=28	=28
4A	4a	4cc#	4ee	4A	4aa	4r
4F#	4a	4dd	4aa	4F#	4dd	4aa
=29	=29	=29	=29	=29	=29	=29
4G	4b	12b	12gg	4G	12b	12gg
.	.	12cc#	12aa	.	12cc#	12aa
.	.	12dd	12ff#	.	12dd	12ff#
4A	8e	12a	4ee	4A	12a	4ee
.	.	12dd	.	.	12dd	.
.	8a	.	.	.	.	.
.	.	12cc#	.	.	12cc#	.
=30	=30	=30	=30	=30	=30	=30
4D	4f#	4dd	4dd	4D	4dd	4dd
4r	4r	4r	4r	12d	4r	4aa
.	.	.	.	12e	.	.
.	.	.	.	12d	.	.
=31	=31	=31	=31	=31	=31	=31
4r	4r	4r	4r	12c#	4aa	4r
.	.	.	.	12d	.	.
.	.	.	.	12c#	.	.
4D	4a	4dd	4ff#	12d	4r	4aa
.	.	.	.	12e	.	.
.	.	.	.	12d	.	.
=32	=32	=32	=32	=32	=32	=32
4A	4a	4cc#	4ee	12A	4aa	4r
.	.	.	.	12B	.	.
.	.	.	.	12A	.	.
4r	4r	4r	4r	12d	4r	4aa
.	.	.	.	12e	.	.
.	.	.	.	12d	.	.
=33	=33	=33	=33	=33	=33	=33
4r	4r	4r	4r	12c#	4aa	4r
.	.	.	.	12d	.	.
.	.	.	.	12c#	.	.
4D	4a	4dd	4ff#	12d	4r	4aa
.	.	.	.	12e	.	.
.	.	.	.	12d	.	.
=34	=34	=34	=34	=34	=34	=34
4A	4a	4cc#	4ee	4A	4aa	4r
4F#	4a	4dd	4aa	4F#	4dd	4aa
=35	=35	=35	=35	=35	=35	=35
4G	4b	12b	12gg	4G	12b	12gg
.	.	12cc#	12aa	.	12cc#	12aa
.	.	12dd	12ff#	.	12dd	12ff#
4A	8e	12a	4ee	4A	12a	4ee
.	.	12dd	.	.	12dd	.
.	8a	.	.	.	.	.
.	.	12cc#	.	.	12cc#	.
=36	=36	=36	=36	=36	=36	=36
4D	4f#	4dd	4dd	4D	4dd	4dd
4FF#	8r	8r	8r	4FF#	8r	8r
.	8A	8d	8a	.	8d	8a
=37	=37	=37	=37	=37	=37	=37
4GG	4B	4.d	12g	4GG	4.d	12g
.	.	.	12a	.	.	12a
.	.	.	12f#	.	.	12f#
4AA	4A	.	8e	4AA	.	8e
.	.	8c#	8a	.	8c#	8a
=38	=38	=38	=38	=38	=38	=38
2DD	2A	2d	2f#	2DD	2d	2f#
=39	=39	=39	=39	=39	=39	=39
2r	2r	2r	2r	4A#	2ff#	12cc#
.	.	.	.	.	.	12f#
.	.	.	.	.	.	12cc#
.	.	.	.	4F#	.	12cc#
.	.	.	.	.	.	12f#
.	.	.	.	.	.	12cc#
=40	=40	=40	=40	=40	=40	=40
2r	2r	2r	2r	4B	[2ff#	12dd
.	.	.	.	.	.	12f#
.	.	.	.	.	.	12dd
.	.	.	.	4BB	.	12dd
.	.	.	.	.	.	12f#
.	.	.	.	.	.	12dd
=41	=41	=41	=41	=41	=41	=41
4A#	4f#	4ff#	4cc#	4A#	2ff#_	12cc#
.	.	.	.	.	.	12f#
.	.	.	.	.	.	12cc#
4F#	4a#	4ff#	4ff#	4F#	.	12cc#
.	.	.	.	.	.	12f#
.	.	.	.	.	.	12cc#
=42	=42	=42	=42	=42	=42	=42
4B	4b	4ff#	4dd	4B	2ff#]	4dd
4BB	4f#	4d	4B	4BB	.	4B
=43	=43	=43	=43	=43	=43	=43
2r	2r	2r	2r	4d#	2bb	12ff#
.	.	.	.	.	.	12b
.	.	.	.	.	.	12ff#
.	.	.	.	4B	.	12ff#
.	.	.	.	.	.	12b
.	.	.	.	.	.	12ff#
=44	=44	=44	=44	=44	=44	=44
2r	2r	2r	2r	4e	[2bb	12gg
.	.	.	.	.	.	12b
.	.	.	.	.	.	12gg
.	.	.	.	4E	.	12gg
.	.	.	.	.	.	12b
.	.	.	.	.	.	12gg
=45	=45	=45	=45	=45	=45	=45
4d#	4b	4bb	4ff#	4d#	2bb_	12ff#
.	.	.	.	.	.	12b
.	.	.	.	.	.	12ff#
4B	4d#	4bb	4bb	4B	.	12ff#
.	.	.	.	.	.	12b
.	.	.	.	.	.	12ff#
=46	=46	=46	=46	=46	=46	=46
4e	4e	4bb	4gg	4e	2bb]	4gg
4E	4B	4g	4e	4E	.	4e
=47	=47	=47	=47	=47	=47	=47
2r	2r	2r	2r	4e#	2ccc#	12gg#
.	.	.	.	.	.	12cc#
.	.	.	.	.	.	12gg#
.	.	.	.	4c#	.	12gg#
.	.	.	.	.	.	12cc#
.	.	.	.	.	.	12gg#
=48	=48	=48	=48	=48	=48	=48
2r	2r	2r	2r	4f#	[2ccc#	12aa
.	.	.	.	.	.	12cc#
.	.	.	.	.	.	12aa
.	.	.	.	4F#	.	12aa
.	.	.	.	.	.	12cc#
.	.	.	.	.	.	12aa
=49	=49	=49	=49	=49	=49	=49
4e#	4cc#	4ccc#	4gg#	4e#	2ccc#_	12gg#
.	.	.	.	.	.	12cc#
.	.	.	.	.	.	12gg#
4c#	4e#	4ccc#	4ccc#	4c#	.	12gg#
.	.	.	.	.	.	12cc#
.	.	.	.	.	.	12gg#
=50	=50	=50	=50	=50	=50	=50
4f#	4f#	4ccc#	4aa	4f#	4ccc#]	4aa
4F#	4f#	4a	[4dd	4F#	4a	[4dd
=51	=51	=51	=51	=51	=51	=51
4E	4g#	2g#	4dd]	4E	2g#	4dd]
4AA	4c#	.	[4cc#	4AA	.	[4cc#
=52	=52	=52	=52	=52	=52	=52
4D	4f#	2f#	4cc#]	4D	2f#	4cc#]
4GG#	4b	.	[4b	4GG#	.	[4b
=53	=53	=53	=53	=53	=53	=53
4C#	4g#	4e#	4b]	4C#	4e#	4b]
4F#	4f#	[4f#	4a	4F#	[4f#	4a
=54	=54	=54	=54	=54	=54	=54
4BB	4d	4f#]	2g#	4BB	4f#]	2g#
4C#	4c#	4e#	.	4C#	4e#	.
=55	=55	=55	=55	=55	=55	=55
2FF#	2c#	2f#	2f#	4FF#	2f#	2f#
.	.	.	.	4f#	.	.
=56	=56	=56	=56	=56	=56	=56
4r	4r	4r	4r	4e#	12gg#	2ccc#
.	.	.	.	.	12cc#	.
.	.	.	.	.	12gg#	.
4c#	4cc#	4gg#	4ee#	4c#	12gg#	.
.	.	.	.	.	12cc#	.
.	.	.	.	.	12gg#	.
=57	=57	=57	=57	=57	=57	=57
2F#	2cc#	2aa	2ff#	4r	12aa	[2ccc#
.	.	.	.	.	12cc#	.
.	.	.	.	.	12aa	.
.	.	.	.	4f#	12aa	.
.	.	.	.	.	12cc#	.
.	.	.	.	.	12aa	.
=58	=58	=58	=58	=58	=58	=58
4r	4r	4r	4r	4e#	12gg#	2ccc#_
.	.	.	.	.	12cc#	.
.	.	.	.	.	12gg#	.
4c#	4cc#	4gg#	4ee#	4c#	12gg#	.
.	.	.	.	.	12cc#	.
.	.	.	.	.	12gg#	.
=59	=59	=59	=59	=59	=59	=59
2F#	2cc#	2aa	2ff#	4r	4aa	2ccc#]
.	.	.	.	4f#	4f#	.
=60	=60	=60	=60	=60	=60	=60
4r	4r	4r	4r	4d#	12ff#	2bb
.	.	.	.	.	12b	.
.	.	.	.	.	12ff#	.
4B	4b	4ff#	4dd#	4b#	12ff#	.
.	.	.	.	.	12b	.
.	.	.	.	.	12ff#	.
=61	=61	=61	=61	=61	=61	=61
2E	2b	2gg	2ee	4r	12gg	[2bb
.	.	.	.	.	12b	.
.	.	.	.	.	12gg	.
.	.	.	.	4e	12gg	.
.	.	.	.	.	12b	.
.	.	.	.	.	12gg	.
=62	=62	=62	=62	=62	=62	=62
4r	4r	4r	4r	4d#	12ff#	2bb_
.	.	.	.	.	12b	.
.	.	.	.	.	12ff#	.
4B	4b	4ff#	4dd#	4B	12ff#	.
.	.	.	.	.	12b	.
.	.	.	.	.	12ff#	.
=63	=63	=63	=63	=63	=63	=63
2E	2b	2gg	2ee	4r	4gg	2bb]
.	.	.	.	4e	4e	.
=64	=64	=64	=64	=64	=64	=64
4r	4r	4r	4r	4c#	12ee	2aa
.	.	.	.	.	12a	.
.	.	.	.	.	12ee	.
4A	4a	4ee	4cc#	4A	12ee	.
.	.	.	.	.	12a	.
.	.	.	.	.	12ee	.
=65	=65	=65	=65	=65	=65	=65
2D	2a	2ff#	2dd	4r	12ff#	[2aa
.	.	.	.	.	12a	.
.	.	.	.	.	12ff#	.
.	.	.	.	4d	12ff#	.
.	.	.	.	.	12a	.
.	.	.	.	.	12ff#	.
=66	=66	=66	=66	=66	=66	=66
4r	4r	4r	4r	4c#	12ee	2aa_
.	.	.	.	.	12a	.
.	.	.	.	.	12ee	.
4A	4a	4ee	4cc#	4A	12ee	.
.	.	.	.	.	12a	.
.	.	.	.	.	12ee	.
=67	=67	=67	=67	=67	=67	=67
2D	2a	2ff#	2dd	4r	4ff#	2aa]
.	.	.	.	4d	4d	.
=68	=68	=68	=68	=68	=68	=68
4G	4g	4dd	4bb	4G	4cc#	12bb
.	.	.	.	.	.	12dd
.	.	.	.	.	.	12bb
4F#	4d	4r	4aa	4F#	4r	12aa
.	.	.	.	.	.	12dd
.	.	.	.	.	.	12aa
=69	=69	=69	=69	=69	=69	=69
4G	4g	4dd	4bb	4G	4dd	12bb
.	.	.	.	.	.	12dd
.	.	.	.	.	.	12bb
4F#	4d	4r	4aa	4F#	4r	12aa
.	.	.	.	.	.	12dd
.	.	.	.	.	.	12aa
=70	=70	=70	=70	=70	=70	=70
4E	4e	4cc#	4gg	4E	4cc#	12gg
.	.	.	.	.	.	12ee
.	.	.	.	.	.	12gg
4D	8f#	4dd	4ff#	4D	4dd	12ff#
.	.	.	.	.	.	12dd
.	8g	.	.	.	.	.
.	.	.	.	.	.	12ff#
=71	=71	=71	=71	=71	=71	=71
2A	2a	2cc#	4ee	2A	2cc#	4ee
.	.	.	4a	.	.	4a
=72	=72	=72	=72	=72	=72	=72
2F#	2a	2r	4ddd	2F#	12dd	12ff#
.	.	.	.	.	12ee	12gg
.	.	.	.	.	12ff#	12aa
.	.	.	4dd	.	12dd	12ff#
.	.	.	.	.	12ee	12gg
.	.	.	.	.	12ff#	12aa
=73	=73	=73	=73	=73	=73	=73
2G	2b	4ddd	2r	2G	12dd	12ff#
.	.	.	.	.	12ee	12gg
.	.	.	.	.	12ff#	12aa
.	.	4dd	.	.	12dd	12ff#
.	.	.	.	.	12ee	12gg
.	.	.	.	.	12ff#	12aa
=74	=74	=74	=74	=74	=74	=74
2A	2cc#	2r	4ddd	2A	12dd	12ff#
.	.	.	.	.	12ee	12gg
.	.	.	.	.	12ff#	12aa
.	.	.	4dd	.	12dd	12ff#
.	.	.	.	.	12ee	12gg
.	.	.	.	.	12ff#	12aa
=75	=75	=75	=75	=75	=75	=75
2B	2dd	4ddd	2r	2B	2dd	2ff#
.	.	4dd	.	.	.	.
=76	=76	=76	=76	=76	=76	=76
4.F#	4.d	12ff#	12aa	4.F#	12ff#	12aa
.	.	12ee	12gg	.	12ee	12gg
.	.	12dd	12ff#	.	12dd	12ff#
.	.	12ff#	12aa	.	12ff#	12aa
.	.	12ee	12gg	.	12ee	12gg
8F#	8d	.	.	8F#	.	.
.	.	12dd	12ff#	.	12dd	12ff#
=77	=77	=77	=77	=77	=77	=77
4G	4d	8b	12bb	4G	8b	12bb
.	.	.	12aa	.	.	12aa
.	.	8cc#	.	.	8cc#	.
.	.	.	12bb	.	.	12bb
4D	8f#	4dd	12gg	4D	4dd	12gg
.	.	.	12aa	.	.	12aa
.	8g	.	.	.	.	.
.	.	.	12ff#	.	.	12ff#
=78	=78	=78	=78	=78	=78	=78
4A	4.a	4.dd	4.ee	4A	4.dd	4.ee
4AA	.	.	.	4AA	.	.
.	8a	8cc#	8aa	.	8cc#	8aa
=79	=79	=79	=79	=79	=79	=79
2D	2a	2dd	2ff#	2D	2dd	2ff#
=80	=80	=80	=80	=80	=80	=80
2F#	2a	2r	4ddd	2F#	12dd	12ff#
.	.	.	.	.	12ee	12gg
.	.	.	.	.	12ff#	12aa
.	.	.	4dd	.	12dd	12ff#
.	.	.	.	.	12ee	12gg
.	.	.	.	.	12ff#	12aa
=81	=81	=81	=81	=81	=81	=81
2G	2b	4ddd	2r	2G	12dd	12ff#
.	.	.	.	.	12ee	12gg
.	.	.	.	.	12ff#	12aa
.	.	4dd	.	.	12dd	12ff#
.	.	.	.	.	12ee	12gg
.	.	.	.	.	12ff#	12aa
=82	=82	=82	=82	=82	=82	=82
2A	2cc#	2r	4ddd	2A	12dd	12ff#
.	.	.	.	.	12ee	12gg
.	.	.	.	.	12ff#	12aa
.	.	.	4dd	.	12dd	12ff#
.	.	.	.	.	12ee	12gg
.	.	.	.	.	12ff#	12aa
=83	=83	=83	=83	=83	=83	=83
2B	2dd	4ddd	2r	2B	2dd	2ff#
.	.	4dd	.	.	.	.
=84	=84	=84	=84	=84	=84	=84
4.F#	4.d	12ff#	12aa	4.F#	12ff#	12aa
.	.	12ee	12gg	.	12ee	12gg
.	.	12dd	12ff#	.	12dd	12ff#
.	.	12ff#	12aa	.	12ff#	12aa
.	.	12ee	12gg	.	12ee	12gg
8F#	8d	.	.	8F#	.	.
.	.	12dd	12ff#	.	12dd	12ff#
=85	=85	=85	=85	=85	=85	=85
4G	4d	8b	12bb	4G	8b	12bb
.	.	.	12aa	.	.	12aa
.	.	8cc#	.	.	8cc#	.
.	.	.	12bb	.	.	12bb
4D	8f#	4dd	12gg	4D	4dd	12gg
.	.	.	12aa	.	.	12aa
.	8g	.	.	.	.	.
.	.	.	12ff#	.	.	12ff#
=86	=86	=86	=86	=86	=86	=86
4A	4.a	4.dd	4.ee	4A	4.dd	4.ee
4AA	.	.	.	4AA	.	.
.	8a	8cc#	8aa	.	8cc#	8aa
=87	=87	=87	=87	=87	=87	=87
2D	2a	2dd	2ff#	2D	2dd	2ff#
=88	=88	=88	=88	=88	=88	=88
4.F#	4.d	12dd	12aa	4.F#	12dd	12aa
.	.	12ee	12gg	.	12ee	12gg
.	.	12dd	12ff#	.	12dd	12ff#
.	.	12ff#	12aa	.	12ff#	12aa
.	.	12ee	12gg	.	12ee	12gg
8F#	8d	.	.	8F#	.	.
.	.	12ff#	12ff#	.	12ff#	12ff#
=89	=89	=89	=89	=89	=89	=89
4G	4d	8b	12bb	4G	8b	12bb
.	.	.	12aa	.	.	12aa
.	.	8cc#	.	.	8cc#	.
.	.	.	12bb	.	.	12bb
4D	8f#	4dd	12gg	4D	4dd	12gg
.	.	.	12aa	.	.	12aa
.	8g	.	.	.	.	.
.	.	.	12ff#	.	.	12ff#
=90	=90	=90	=90	=90	=90	=90
4A	4.a	4.dd	2ee	4A	4.dd	2ee
4AA	.	.	.	4AA	.	.
.	8a	8cc#	.	.	8cc#	.
=91	=91	=91	=91	=91	=91	=91
2D	2a	2dd	2dd	2D	2dd	2dd
==	==	==	==	==	==	==
*-	*-	*-	*-	*-	*-	*-
!!!RWG: This file only contains pitch and duration data.
!!!RWG: Transposing instruments are not transposed.
!!!RWG: Durations of rests and tied notes may be interpreted.
!!!RWG: Key is interpreted using the Humdrum key tool.
!!!SCA: 
!!!YOR: Chrysander Edition
!!!AGN: concerto grosso
!!!AFT: stage1
!!!ENC: F. Bennion
!!!END: 1997/04/15
!!!AST: baroque
!!!YEC: Copyright 1994, Center for Computer Assisted Research in the Humanities
!!!YEM: Rights to all derivative electronic formats reserved.
!!!YEM: Refer to licensing agreement for further details.
!!!YEN: United States of America
!!!EED: W.B. Hewlett
!!!KEY: 3768840281
!!!EMD: Converted from MuseData to Humdrum Aug 9, 1999, by Bret Aarden using muse2kern.
!!!VTS: 2982297536
